img/Instagram.svg

<svg width="30" height="30" viewBox="0 0 30 30" fill="none" xmlns="http://www.w3.org/2000/svg">
<path d="M15.0033 7.30838C10.7468 7.30838 7.31344 10.7425 7.31344 15C7.31344 19.2575 10.7468 22.6916 15.0033 22.6916C19.2599 22.6916 22.6933 19.2575 22.6933 15C22.6933 10.7425 19.2599 7.30838 15.0033 7.30838ZM15.0033 20.0006C12.2527 20.0006 10.0039 17.758 10.0039 15C10.0039 12.242 12.246 9.99944 15.0033 9.99944C17.7607 9.99944 20.0028 12.242 20.0028 15C20.0028 17.758 17.754 20.0006 15.0033 20.0006ZM24.8015 6.99375C24.8015 7.99119 23.9983 8.7878 23.0078 8.7878C22.0106 8.7878 21.2142 7.98449 21.2142 6.99375C21.2142 6.00301 22.0173 5.19971 23.0078 5.19971C23.9983 5.19971 24.8015 6.00301 24.8015 6.99375ZM29.8946 8.81457C29.7808 6.41136 29.232 4.28261 27.4718 2.52873C25.7184 0.774852 23.5901 0.225929 21.1874 0.105433C18.7111 -0.0351445 11.2889 -0.0351445 8.81261 0.105433C6.41662 0.219235 4.28834 0.768158 2.52817 2.52204C0.767987 4.27591 0.225878 6.40466 0.10541 8.80788C-0.0351366 11.2847 -0.0351366 18.7086 0.10541 21.1854C0.219186 23.5886 0.767987 25.7174 2.52817 27.4713C4.28834 29.2251 6.40993 29.7741 8.81261 29.8946C11.2889 30.0351 18.7111 30.0351 21.1874 29.8946C23.5901 29.7808 25.7184 29.2318 27.4718 27.4713C29.2253 25.7174 29.7741 23.5886 29.8946 21.1854C30.0351 18.7086 30.0351 11.2914 29.8946 8.81457ZM26.6955 23.843C26.1735 25.1551 25.1629 26.1659 23.8444 26.6947C21.8701 27.478 17.1852 27.2972 15.0033 27.2972C12.8215 27.2972 8.12995 27.4713 6.1623 26.6947C4.85053 26.1726 3.83993 25.1618 3.31121 23.843C2.52817 21.8682 2.70887 17.1823 2.70887 15C2.70887 12.8177 2.53486 8.12507 3.31121 6.15698C3.83324 4.84492 4.84384 3.8341 6.1623 3.30525C8.13664 2.52204 12.8215 2.70278 15.0033 2.70278C17.1852 2.70278 21.8767 2.52873 23.8444 3.30525C25.1562 3.8274 26.1668 4.83822 26.6955 6.15698C27.4785 8.13176 27.2978 12.8177 27.2978 15C27.2978 17.1823 27.4785 21.8749 26.6955 23.843Z" fill="#4C4C4C"/>
</svg>

<svg width="30" height="30" fill="none" xmlns="http://www.w3.org/2000/svg"><path d="M15.003 7.308A7.679 7.679 0 007.313 15a7.679 7.679 0 007.69 7.692A7.679 7.679 0 0022.693 15a7.679 7.679 0 00-7.69-7.692zm0 12.693c-2.75 0-5-2.243-5-5.001 0-2.758 2.243-5 5-5 2.758 0 5 2.242 5 5s-2.249 5-5 5zm9.799-13.007a1.79 1.79 0 01-1.794 1.794 1.794 1.794 0 111.794-1.794zm5.093 1.82c-.114-2.403-.663-4.531-2.423-6.285C25.718.775 23.59.226 21.187.105c-2.476-.14-9.898-.14-12.374 0C6.417.22 4.288.768 2.528 2.522.768 4.276.226 6.405.105 8.808c-.14 2.477-.14 9.9 0 12.377.114 2.404.663 4.532 2.423 6.286 1.76 1.754 3.882 2.303 6.285 2.424 2.476.14 9.898.14 12.374 0 2.403-.114 4.531-.663 6.285-2.424 1.753-1.754 2.302-3.882 2.423-6.286.14-2.476.14-9.894 0-12.37zm-3.2 15.029a5.062 5.062 0 01-2.85 2.852c-1.975.783-6.66.602-8.842.602-2.181 0-6.873.174-8.84-.602a5.062 5.062 0 01-2.852-2.852c-.783-1.975-.602-6.66-.602-8.843 0-2.182-.174-6.875.602-8.843a5.062 5.062 0 012.851-2.852c1.975-.783 6.66-.602 8.841-.602 2.182 0 6.874-.174 8.841.602a5.062 5.062 0 012.851 2.852c.784 1.975.603 6.66.603 8.843 0 2.182.18 6.875-.602 8.843z" fill="#4C4C4C"/></svg>
